X: 3661
T: Bill The Weaver's
R: slide
M: 12/8
K: Dmajor
g3|:fed B2d A2d F2B|A2F DEF E3 E2g|
fed Bcd A2d F2B|1 A2F EFE D3 D2g:|2 A2F EFE D3 D3||
|:fef a2a baf a2f|d2f a2f g3 f2e|
[1 fef a2a baf a2f|d2f a2f d3 d2e:|
[2 fga efg fed B2d|ABA GFE D3||

